X:1
T:Title
%%score 1 2
L:1/8
Q:1/4=140
M:3/2
K:F
V:1 treble nm="Strings 1, Treble"
V:2 bass nm="Strings 1, Bass"
V:1
 z4 z2 C2 [CF]2 [FA]2 | [Fc]6 C2 [CF]2 [FA]2 | [Fc]8 [FA]4 | [EG]6 [GB]2 [FA]2 [EG]2 | %4
w: 1.~Blest~ was~ the~|hour~ that~ heav'n ly~|fire~ Lit~|up~ my~ dark ened~|
 [FA]6 C2 [CF]2 [FA]2 | [Fc]6 C2 [CF]2 [FA]2 | [Fc]8 [FA]4 | [EG]6 [GB]2 [FA]2 [EG]2 | %8
w: soul;~ A~ heav y~|load,~ by~ Je sus'~|pow'r,~ Did~|from~ my~ bos om~|
 [CF]6 C2 [CF]2 [CG]2 | [FA]6 [FB]2 [Fc]2 [Fd]2 | [Fc]8 [FA]4 | [EB]6 [EG]2 [Ec]2 [GB]2 | %12
w: roll.~ * * *||||
 [FA]6 C2 [CF]2 [FA]2 | [Fc]6 C2 [CF]2 [FA]2 | [Fc]8 [FA]4 | [EG]6 [GB]2 [FA]2 [EG]2 | [CF]8 z4 |] %17
w: |||||
V:2
 z4 z2 [F,A,]2 [F,A,]2 [F,C]2 | [F,A,]6 [F,A,]2 [F,A,]2 [F,C]2 | [F,A,]8 [F,C]4 | %3
 [C,C]6 [C,C]2 [C,C]2 [C,C]2 | [F,C]6 [F,A,]2 [F,A,]2 [F,C]2 | [F,A,]6 [F,A,]2 [F,A,]2 [F,C]2 | %6
 [F,A,]8 [F,C]4 | [C,C]6 [C,C]2 [C,C]2 [C,B,]2 | [F,A,]6 [F,A,]2 [F,A,]2 [F,B,]2 | %9
 [F,C]6 [F,G,]2 [F,A,]2 [F,B,]2 | [F,A,]8 [F,C]4 | [C,C]6 [C,C]2 [C,C]2 [E,C]2 | %12
 [F,C]6 [F,A,]2 [F,A,]2 [F,C]2 | [F,A,]6 [F,A,]2 [F,A,]2 [F,C]2 | [F,A,]8 [F,C]4 | %15
 [C,C]6 [C,C]2 [C,C]2 [C,B,]2 | [F,A,]8 z4 |] %17

